X:1
T:Waiting at the Pool
T:Waiting at the Pool
T:William Gustavus Fischer
T:Alfred J. Hough, 1879
T:Public Domain Courtesy of the Cyber Hymnal™
T:Public Domain Courtesy of the Cyber Hymnal™
C:William Gustavus Fischer
Z:Public Domain
Z:Courtesy of the Cyber Hymnal™
%%score ( 1 2 ) ( 3 4 )
L:1/8
Q:1/4=100
M:6/8
K:Ab
V:1 treble 
V:2 treble 
V:3 bass 
V:4 bass 
V:1
 [Ec]2 [DB] [CA]2 [EG] | [DF]2 [FA] [DF] [CE]2 | [CE] [CA]2 [CA]2 [DB] | [CA]6 | %4
w: 1.~Thou- sands stand to-|day in sor- row,|Wait- ing at the|pool;|
w: 2.~Souls, your filth- y|gar- ments wear- ing,|Wait- ing at the|pool;|
w: 3.~Thou- sands once were|stand- ing near you,|Wait- ing at the|pool;|
w: 4.~Mo- ther leaves the|son, the daugh- ter,|Wait- ing at the|pool;|
w: 5.~Step in bold- ly—|death may smite you,|Wait- ing at the|pool;|
 [Ec]2 [DB] [CA]2 [EG] | [DF]2 [FA] [DF] [CE]2 | [CE] [CA]2 [CA]2 [DB] | [CA]6 | %8
w: Say- ing they will|wash to- mor- row,|Wait- ing at the|pool;|
w: Hearts, your hea- vy|bur- den bear- ing,|Wait- ing at the|pool;|
w: Come their voic- es|back to cheer you,|Wait- ing at the|pool;|
w: Calls to them a-|cross the wa- ter,|Wait- ing at the|pool;|
w: Je- sus may no|more in- vite you,|Wait- ing at the|pool;|
 [EB]2 [EB] [EB]2 [EG] | [EA]2 [EB] [Ec]3 | [EB]2 [EB] [EB]2 [EG] | [EA]2 [EB] ([Ec]2 [Ec]) | %12
w: Oth- ers step in|left and right,|Wash their stain- èd|gar- ments white, *|
w: Can it be you|ne- ver heard,|Je- sus long a-|go hath stirred~The *|
w: Back from Ca- naan’s|hap- py shore,|Sor- rows past and|la- bor o’er, *|
w: You can ne- ver-|more em- brace|Mo- ther, or be-|hold her face, *|
w: Faith is near you,|take her hand;|Seek with her the|bet- ter land, *|
 [Ae]2 [Ec] [EA]2 E | ([DF][FA])[DF] [CE]3 | [CE] [CA]2 [Ec]2 [EB] | [Ec]6 | [Ae]3 [Ec]3 | %17
w: Leav- ing you in|sor- * row’s night,|Wait- ing at the|pool,|Wait- ing,|
w: wa- ters with His|might- * y word?|Wait- ing at the|pool;|Wait- ing,|
w: Where they stand in|tears * no more,|Wait- ing at the|pool;|Wait- ing,|
w: If you keep the|le- * per’s place,|Wait- ing at the|pool;|Wait- ing,|
w: And no long- er|doubt- * ing stand,|Wait- ing at the|pool;|Wait- ing,|
 (B2 c) [Fd]3 | (A>G)[EA] [Ec]2 [DB] | [CA]6 |] %20
w: wait- * ing,|wait- * ing at the|pool.|
w: wait- * ing,|wait- * ing at the|pool.|
w: wait- * ing,|wait- * ing at the|pool.|
w: wait- * ing,|wait- * ing at the|pool.|
w: wait- * ing,|wait- * ing at the|pool.|
V:2
 x6 | x6 | x6 | x6 | x6 | x6 | x6 | x6 | x6 | x6 | x6 | x6 | x5 E | x6 | x6 | x6 | x6 | F3 x3 | %18
 E2 x4 | x6 |] %20
V:3
 [A,,A,]2 [A,,E,] [A,,E,]2 [C,A,] | [D,A,]2 [D,A,] [A,,A,] [A,,A,]2 | [E,A,] E,2 E,2 E, | %3
 [A,,E,]6 | [A,,A,]2 [A,,E,] [A,,E,]2 [C,A,] | [D,A,]2 [D,A,] [A,,A,] [A,,A,]2 | %6
 [E,A,] E,2 E,2 E, | [A,,E,]6 | [E,G,]2 [E,G,] [E,G,]2 [D,B,] | [C,A,]2 [B,,G,] [A,,A,]3 | %10
 [E,G,]2 [E,G,] [E,G,]2 [D,B,] | [C,A,]2 [B,,G,] [A,,A,]3 | [A,C]2 A, [A,C]2 [C,A,] | %13
 (A,D)[D,A,] [A,,A,]3 | [E,A,] E,2 [E,A,]2 [E,G,] | [A,,A,]6 | [A,,C]3 [C,A,]3 | [D,D]3 [D,B,]3 | %18
 (C>B,)[E,C] [E,A,]2 [E,G,] | [A,,A,]6 |] %20
V:4
 x6 | x6 | x E,2 E,2 E, | x6 | x6 | x6 | x E,2 E,2 E, | x6 | x6 | x6 | x6 | x6 | x2 A, x3 | %13
 D,2 x4 | x E,2 x3 | x6 | x6 | x6 | D,2 x4 | x6 |] %20

